icons/night/reactjs.svg

<svg width="16" height="16" viewBox="0 0 16 16" fill="none" xmlns="http://www.w3.org/2000/svg">
<path d="M8 8.99999C8.55228 8.99999 9 8.55227 9 7.99999C9 7.4477 8.55228 6.99999 8 6.99999C7.44772 6.99999 7 7.4477 7 7.99999C7 8.55227 7.44772 8.99999 8 8.99999Z" fill="#E0AF68"/>
<path d="M8 8.99999C8.55228 8.99999 9 8.55227 9 7.99999C9 7.4477 8.55228 6.99999 8 6.99999C7.44772 6.99999 7 7.4477 7 7.99999C7 8.55227 7.44772 8.99999 8 8.99999Z" stroke="#E0AF68"/>
<path d="M14.5 7.99999C14.5 8.24499 14.386 8.51999 14.094 8.81699C13.8 9.11499 13.349 9.40699 12.753 9.66199C11.562 10.172 9.882 10.5 8 10.5C6.118 10.5 4.438 10.172 3.247 9.66199C2.651 9.40599 2.2 9.11499 1.906 8.81699C1.614 8.51999 1.5 8.24499 1.5 7.99999C1.5 7.75499 1.614 7.47999 1.906 7.18299C2.2 6.88499 2.651 6.59299 3.247 6.33799C4.438 5.82799 6.118 5.49999 8 5.49999C9.882 5.49999 11.562 5.82799 12.753 6.33799C13.349 6.59399 13.8 6.88499 14.094 7.18299C14.386 7.47999 14.5 7.75499 14.5 7.99999Z" stroke="#E0AF68"/>
<path d="M11.25 13.63C11.038 13.752 10.742 13.79 10.34 13.686C9.935 13.58 9.457 13.336 8.937 12.946C7.9 12.172 6.776 10.88 5.835 9.24999C4.894 7.61999 4.338 6.00099 4.185 4.71499C4.108 4.07099 4.135 3.53499 4.245 3.13099C4.356 2.72999 4.538 2.49299 4.75 2.37099C4.962 2.24799 5.258 2.20899 5.66 2.31399C6.065 2.41999 6.543 2.66399 7.063 3.05399C8.1 3.82799 9.224 5.11999 10.165 6.74999C11.106 8.37999 11.662 9.99899 11.815 11.285C11.892 11.929 11.865 12.465 11.755 12.869C11.644 13.27 11.462 13.507 11.25 13.629V13.63Z" stroke="#E0AF68"/>
<path d="M4.75 13.63C4.538 13.507 4.356 13.27 4.246 12.87C4.135 12.465 4.108 11.93 4.184 11.285C4.338 9.99899 4.894 8.37999 5.834 6.74999C6.776 5.11999 7.9 3.82999 8.937 3.05299C9.457 2.66399 9.935 2.41999 10.34 2.31399C10.742 2.20899 11.038 2.24799 11.25 2.37099C11.462 2.49299 11.644 2.72999 11.754 3.13099C11.865 3.53499 11.892 4.07099 11.816 4.71499C11.662 6.00099 11.106 7.61999 10.166 9.24999C9.224 10.88 8.1 12.17 7.063 12.947C6.543 13.336 6.065 13.58 5.66 13.686C5.258 13.791 4.962 13.752 4.75 13.629V13.63Z" stroke="#E0AF68"/>
</svg>

<svg xmlns="http://www.w3.org/2000/svg" fill="none" viewBox="0 0 16 16"><circle
    cx="8"
    cy="8"
    r="1"
    fill="#e0af68"
  /><path
    stroke="#e0af68"
    d="M14.5 8c0 .245-.114.52-.406.817-.294.298-.745.59-1.341.845-1.191.51-2.871.838-4.753.838-1.882 0-3.562-.328-4.753-.838-.596-.256-1.047-.547-1.341-.845C1.614 8.52 1.5 8.245 1.5 8s.114-.52.406-.817c.294-.298.745-.59 1.341-.845C4.438 5.828 6.118 5.5 8 5.5c1.882 0 3.562.328 4.753.838.596.256 1.047.547 1.341.845.292.297.406.572.406.817Z"
  /><path
    stroke="#e0af68"
    d="M11.25 13.63c-.212.122-.508.16-.91.056-.405-.106-.883-.35-1.403-.74C7.9 12.172 6.776 10.88 5.835 9.25c-.941-1.63-1.497-3.249-1.65-4.535-.077-.644-.05-1.18.06-1.584.111-.401.293-.638.505-.76.212-.123.508-.162.91-.057.405.106.883.35 1.403.74C8.1 3.828 9.224 5.12 10.165 6.75c.941 1.63 1.497 3.249 1.65 4.535.077.644.05 1.18-.06 1.584-.111.401-.293.638-.505.76Z"
  /><path
    stroke="#e0af68"
    d="M4.75 13.63c-.212-.123-.394-.36-.504-.76-.111-.405-.138-.94-.062-1.585.154-1.286.71-2.905 1.65-4.535.942-1.63 2.066-2.92 3.103-3.697.52-.389.998-.633 1.403-.739.402-.105.698-.066.91.057.212.122.394.359.504.76.111.404.138.94.062 1.584-.154 1.286-.71 2.905-1.65 4.535-.942 1.63-2.066 2.92-3.103 3.697-.52.389-.998.633-1.403.739-.402.105-.698.066-.91-.057Z"
  /></svg>
